X:1
T: The Pass of Ballater
C:Alexander Walker
R:Strathspey
Q: 128
K:Cm
M:4/4
L:1/16
|:E2|C3D E3F G3B c3d|e3c d3A BcBF D3B,|C3D E3F G3B c3d|e3c edcB cC3 C2E2|
C3D E3F G3B c3d|e3c d3A BcBF D3B,|C3D E3F G3B c3d|e3c edcB cC3 C2e2|
g3c e3c c'3c e4|f3B d3B b3B d4|g3c e3c c'3c g3a|b3g f3d ccc2 c3e|
g3c e3c c'3c g3a|b3g f3e dB3 B3d|c3e d3f e3g f3b|g3e f3d ccc2 c2:|
